X:1
T:La jambe me fait mal
T:La jambe me fait mal
T:Nicolas Saboly (1614-1675)
C:Nicolas Saboly (1614-1675)
L:1/8
Q:1/4=120
M:2/4
K:C
V:1 treble 
V:1
 c2 dB | c3 _e | d_e fd | _e2 d2 | c2 dB | c3 _e | d_e fd | _e4 | g2 f_e | f3 _e | d_e cd | B2 G2 | %12
w: Y a bien|de dzen|qui van en pe|le ri|Y a bien|de dzen|qui van a Be|te|Dze voui lle|ala se|trou vo lo co|a dzo|
 g2 f_e | f3 _e | dc Bc | G3 G | c>B cd | _e2 de | ff _ed | _e2 d>g | c>B cd | _e2 de | ff _ed | %23
w: Dze voui lle|ala, se|pou io en co|en La|tsam ba me fe|mo Beu ta|sel la, beu ta|sel la La|tsam ba i me|fe mo Beu|ta sel la ou|
 c4 |] %24
w: men|

